X: 135017
Q: "Irish Reel."
M: C
L: 1/8
K: Am
|: ed |\
c2(Bc) AcBA | GEGA GABd |\
edcB   ABcd | e2A2 Afed |\
c2(Bc) AcBA | GEGA GABd |\
eg^fa  gedB | A2AA A2 :|
|: e^f |\
g2(ga) gedB | A2AA A2e^f |\
g2(ga) gedc | BcAB G3B |\
eg^fa  gedB | A2AA A2 :|


